icon-themes/breeze_svg/cmd/32/symbolshapes.right-brace.svg

<svg viewBox="0 0 32 32" xmlns="http://www.w3.org/2000/svg"><path d="m16.939453 4v1.1835938c1.18456 0 1.216797.4783374 1.216797 2.2109374v1.6054688h-.007812c.0014.138316.007812 2.235743.007812 2.394531v2.033203c0 .831.204695 2.069332 1.203125 2.582032-.99843.5127-1.203125 1.749178-1.203125 2.580078v2.015625c0 .158788-.006413 2.256215-.007812 2.394531h.007812v1.605469c0 1.7326-.032197 2.210937-1.216797 2.210937v1.183594c1.77684 0 2.537109-.706366 2.537109-2.509766v-2.441406c0-.016081.001923-.032677.001954-.048828h-.001954v-3.951172c0-1.1138.06859-2.404297 1.033204-2.404297h.490234v-1.289062h-.490234c-.96457 0-1.033203-1.290497-1.033204-2.404297v-3.951172h.001954c-.000031-.0161509-.001954-.0327465-.001954-.0488281v-2.4414063c0-1.8034-.760269-2.5097656-2.537109-2.5097656z" fill="#4d4d4d"/></svg>

<svg xmlns="http://www.w3.org/2000/svg" viewBox="0 0 32 32">
 <path 
     style="fill:#4d4d4d" 
     d="M 16.939453 4 L 16.939453 5.1835938 C 18.124013 5.1835938 18.15625 5.6619312 18.15625 7.3945312 L 18.15625 9 L 18.148438 9 C 18.149838 9.138316 18.15625 11.235743 18.15625 11.394531 L 18.15625 13.427734 C 18.15625 14.258734 18.360945 15.497066 19.359375 16.009766 C 18.360945 16.522466 18.15625 17.758944 18.15625 18.589844 L 18.15625 20.605469 C 18.15625 20.764257 18.149837 22.861684 18.148438 23 L 18.15625 23 L 18.15625 24.605469 C 18.15625 26.338069 18.124053 26.816406 16.939453 26.816406 L 16.939453 28 C 18.716293 28 19.476562 27.293634 19.476562 25.490234 L 19.476562 23.048828 C 19.476562 23.032747 19.478485 23.016151 19.478516 23 L 19.476562 23 L 19.476562 19.048828 C 19.476562 17.935028 19.545152 16.644531 20.509766 16.644531 L 21 16.644531 L 21 15.355469 L 20.509766 15.355469 C 19.545196 15.355469 19.476563 14.064972 19.476562 12.951172 L 19.476562 9 L 19.478516 9 C 19.478485 8.9838491 19.476562 8.9672535 19.476562 8.9511719 L 19.476562 6.5097656 C 19.476562 4.7063656 18.716293 4 16.939453 4 z "
     />
</svg>
